X:1
T:Litj-hurven
R:Pols
R:Polska
O:Røros, Norge
B:Spelmansmusik
M:3/4
L:1/8
K:D
Q:1/4=140
F|"A"F>GE2 E2|"D"E>F D3 F|"A"F>GE2 E2|"D"D2 A,3 F|
"A"F>GE2 E2|"D"E>F D3 F|"A"F>GE2 E2|"D"D2 D3:|
|:A|"D"AB/c/ de fd|"G"gf ed "A"cd|"Bm"ef df "F#m"af|"E"dc "A"A3 A|
"D"AB/c/ de fd|"G"gf ed "A"cd|"Bm"ef df "F#m"af|"A"dc "D"d3:|

